_site/assets/img/cursor-auto.svg

<svg width="26" height="60" viewBox="0 0 26 60" fill="none" xmlns="http://www.w3.org/2000/svg">
<mask id="path-1-outside-1" maskUnits="userSpaceOnUse" x="0" y="0" width="26" height="60" fill="black">
<rect fill="white" width="26" height="60"/>
<path fill-rule="evenodd" clip-rule="evenodd" d="M5 3H1V1H5C8.48293 1 11.5038 2.97844 13 5.8728C14.4962 2.97844 17.5171 1 21 1H25V3H21C17.134 3 14 6.13401 14 10V34H18V36H14V50C14 53.866 17.134 57 21 57H25V59H21C17.5171 59 14.4962 57.0216 13 54.1272C11.5038 57.0216 8.48293 59 5 59H1V57H5C8.86599 57 12 53.866 12 50V36H8V34H12V10C12 6.13401 8.86599 3 5 3Z"/>
</mask>
<path fill-rule="evenodd" clip-rule="evenodd" d="M5 3H1V1H5C8.48293 1 11.5038 2.97844 13 5.8728C14.4962 2.97844 17.5171 1 21 1H25V3H21C17.134 3 14 6.13401 14 10V34H18V36H14V50C14 53.866 17.134 57 21 57H25V59H21C17.5171 59 14.4962 57.0216 13 54.1272C11.5038 57.0216 8.48293 59 5 59H1V57H5C8.86599 57 12 53.866 12 50V36H8V34H12V10C12 6.13401 8.86599 3 5 3Z" fill="black"/>
<path d="M1 3H0V4H1V3ZM1 1V0H0V1H1ZM13 5.8728L12.1117 6.33202L13 8.05043L13.8883 6.33202L13 5.8728ZM25 1H26V0H25V1ZM25 3V4H26V3H25ZM14 34H13V35H14V34ZM18 34H19V33H18V34ZM18 36V37H19V36H18ZM14 36V35H13V36H14ZM25 57H26V56H25V57ZM25 59V60H26V59H25ZM13 54.1272L13.8883 53.668L13 51.9496L12.1117 53.668L13 54.1272ZM1 59H0V60H1V59ZM1 57V56H0V57H1ZM12 36H13V35H12V36ZM8 36H7V37H8V36ZM8 34V33H7V34H8ZM12 34V35H13V34H12ZM1 4H5V2H1V4ZM0 1V3H2V1H0ZM5 0H1V2H5V0ZM13.8883 5.41359C12.2271 2.20013 8.87135 0 5 0V2C8.09452 2 10.7804 3.75676 12.1117 6.33202L13.8883 5.41359ZM21 0C17.1287 0 13.7729 2.20013 12.1117 5.41359L13.8883 6.33202C15.2196 3.75676 17.9055 2 21 2V0ZM25 0H21V2H25V0ZM26 3V1H24V3H26ZM21 4H25V2H21V4ZM15 10C15 6.68629 17.6863 4 21 4V2C16.5817 2 13 5.58172 13 10H15ZM15 34V10H13V34H15ZM14 35H18V33H14V35ZM17 34V36H19V34H17ZM18 35H14V37H18V35ZM15 50V36H13V50H15ZM21 56C17.6863 56 15 53.3137 15 50H13C13 54.4183 16.5817 58 21 58V56ZM25 56H21V58H25V56ZM26 59V57H24V59H26ZM21 60H25V58H21V60ZM12.1117 54.5864C13.7729 57.7999 17.1287 60 21 60V58C17.9055 58 15.2196 56.2432 13.8883 53.668L12.1117 54.5864ZM5 60C8.87135 60 12.2271 57.7999 13.8883 54.5864L12.1117 53.668C10.7804 56.2432 8.09452 58 5 58V60ZM1 60H5V58H1V60ZM0 57V59H2V57H0ZM5 56H1V58H5V56ZM11 50C11 53.3137 8.31371 56 5 56V58C9.41828 58 13 54.4183 13 50H11ZM11 36V50H13V36H11ZM12 35H8V37H12V35ZM9 36V34H7V36H9ZM8 35H12V33H8V35ZM11 10V34H13V10H11ZM5 4C8.31371 4 11 6.68629 11 10H13C13 5.58172 9.41828 2 5 2V4Z" fill="white" fill-opacity="0.5" mask="url(#path-1-outside-1)"/>
</svg>

<svg width="26" height="60" fill="none" xmlns="http://www.w3.org/2000/svg"><mask id="a" maskUnits="userSpaceOnUse" x="0" y="0" width="26" height="60" fill="#000"><path fill="#fff" d="M0 0h26v60H0z"/><path fill-rule="evenodd" clip-rule="evenodd" d="M5 3H1V1h4a9 9 0 018 4.873A9 9 0 0121 1h4v2h-4a7 7 0 00-7 7v24h4v2h-4v14a7 7 0 007 7h4v2h-4a9 9 0 01-8-4.873A9 9 0 015 59H1v-2h4a7 7 0 007-7V36H8v-2h4V10a7 7 0 00-7-7z"/></mask><path fill-rule="evenodd" clip-rule="evenodd" d="M5 3H1V1h4a9 9 0 018 4.873A9 9 0 0121 1h4v2h-4a7 7 0 00-7 7v24h4v2h-4v14a7 7 0 007 7h4v2h-4a9 9 0 01-8-4.873A9 9 0 015 59H1v-2h4a7 7 0 007-7V36H8v-2h4V10a7 7 0 00-7-7z" fill="#000"/><path d="M1 3H0v1h1V3zm0-2V0H0v1h1zm12 4.873l-.888.459L13 8.05l.888-1.718-.888-.46zM25 1h1V0h-1v1zm0 2v1h1V3h-1zM14 34h-1v1h1v-1zm4 0h1v-1h-1v1zm0 2v1h1v-1h-1zm-4 0v-1h-1v1h1zm11 21h1v-1h-1v1zm0 2v1h1v-1h-1zm-12-4.873l.888-.459L13 51.95l-.888 1.718.888.46zM1 59H0v1h1v-1zm0-2v-1H0v1h1zm11-21h1v-1h-1v1zm-4 0H7v1h1v-1zm0-2v-1H7v1h1zm4 0v1h1v-1h-1zM1 4h4V2H1v2zM0 1v2h2V1H0zm5-1H1v2h4V0zm8.888 5.414A10 10 0 005 0v2a8 8 0 017.112 4.332l1.776-.918zM21 0a10 10 0 00-8.888 5.414l1.776.918A8 8 0 0121 2V0zm4 0h-4v2h4V0zm1 3V1h-2v2h2zm-5 1h4V2h-4v2zm-6 6a6 6 0 016-6V2a8 8 0 00-8 8h2zm0 24V10h-2v24h2zm-1 1h4v-2h-4v2zm3-1v2h2v-2h-2zm1 1h-4v2h4v-2zm-3 15V36h-2v14h2zm6 6a6 6 0 01-6-6h-2a8 8 0 008 8v-2zm4 0h-4v2h4v-2zm1 3v-2h-2v2h2zm-5 1h4v-2h-4v2zm-8.888-5.414A10 10 0 0021 60v-2a8 8 0 01-7.112-4.332l-1.776.918zM5 60a10 10 0 008.888-5.414l-1.776-.918A8 8 0 015 58v2zm-4 0h4v-2H1v2zm-1-3v2h2v-2H0zm5-1H1v2h4v-2zm6-6a6 6 0 01-6 6v2a8 8 0 008-8h-2zm0-14v14h2V36h-2zm1-1H8v2h4v-2zm-3 1v-2H7v2h2zm-1-1h4v-2H8v2zm3-25v24h2V10h-2zM5 4a6 6 0 016 6h2a8 8 0 00-8-8v2z" fill="#fff" fill-opacity=".5" mask="url(#a)"/></svg>
